!!!COM: Bach, Johann Sebastian
!!!CDT: 1685/3//-1750/7/28/
!!!OTL@@DE: Valet will ich dir geben
!!!AGN: 4-Part Chorale
!!!SCT: Erk 024
!!!SCT: BWV 415
!!!YEC: Copyright 1994, David Huron
!!!YEC: Changes/Additions 2001 by Craig Stuart Sapp
!!!YEN: United States of America
!!!SMA: 371 Bach Chorales, edited by Ludwig Erk, C.F. Peters
!!!PDT: 1850, 1865
!!!ONB: Harmony and Root analysis done manually
**kern	**kern	**kern	**kern	**root	**harm	**kern
!bass	!tenor	!alto	!soprno	!	!	!
*Iorgan	*Iorgan	*Iorgan	*Iorgan	*Iorgan	*	*Iorgan
*M4/4	*M4/4	*M4/4	*M4/4	*M4/4	*M4/4	*M4/4
*met(C)	*met(C)	*met(C)	*met(C)	*met(C)	*met(C)	*met(C)
*MM60	*MM60	*MM60	*MM60	*MM60	*MM60	*MM60
*k[f#c#]	*k[f#c#]	*k[f#c#]	*k[f#c#]	*k[f#c#]	*k[f#c#]	*k[f#c#]
*D:	*D:	*D:	*D:	*D:	*D:	*D:
*>[A,A,B]	*>[A,A,B]	*>[A,A,B]	*>[A,A,B]	*>[A,A,B]	*>[A,A,B]	*>[A,A,B]
*>A	*>A	*>A	*>A	*>A	*>A	*>A
8D	8F#	4A	4d	4DD	I	4D 4f# 4a
8C#	8E	.	.	.	.	.
=1	=1	=1	=1	=1	=1	=1
8D	8F#	4d	4a	4DD	I	4D 4f# 4a
8E	8G	.	.	.	.	.
8F#	8A	4d	4a	4DD	Ib	4d 4F# 4a
8D	8F#	.	.	.	.	.
8G	4G	4d	4b	4GG	IV	4G 4b 4dd
8F#	.	.	.	.	.	.
4E	8G	[4g	4cc#	4CC#	viiob	4c# 4E 4g
.	8A	.	.	.	.	.
=2	=2	=2	=2	=2	=2	=2
8BB	4B	4g]	2dd	4GG	IVb	4g 4B 4dd
8C#	.	.	.	.	.	.
4D	8A	8f#	.	4DD	I	4D 4f# 4a
.	8G	8e	.	.	.	.
4DD;	4A;	4f#;	4dd;	4DD;	I;	4D; 4f#; 4a;
4d	4a	8a	4ff#	4DD	I	4D 4f# 4a
.	.	8b	.	.	.	.
=3	=3	=3	=3	=3	=3	=3
4A#	4g	4cc#	4ee	4AA#	viioD7/vi	4A# 4cc# 4ee 4gg
8B	4f#	4b	4dd	4BB	vi7	4B 4dd 4ff# 4aa
8An	.	.	.	.	.	.
4G#	4fn	4b	4dd	4GG#	viioD7/V	4G# 4b 4dd 4ff
4A	4e	4a	4cc#	4AA	V	4A 4cc# 4ee
=4	=4	=4	=4	=4	=4	=4
2.D;	2.f#y;	2.a;	2.dd;	2.DD;	I;	2.D; 2.f#; 2.a;
=:|!	=:|!	=:|!	=:|!	=:|!	=:|!	=:|!
*>B	*>B	*>B	*>B	*>B	*>B	*>B
4D	8f#	4a	8dd	4DD	I	4D 4f# 4a
.	8g	.	8ee	.	.	.
=5	=5	=5	=5	=5	=5	=5
8d	4a	4dd	4ff#	4DD	I	4D 4f# 4a
8c#	.	.	.	.	.	.
8B	4d	8dd	4ff#	4BB	vi	4B 4dd 4ff#
8A	.	8cc#	.	.	.	.
8G#	8e	8b	4.ee	8EE	Vb/V	8e 8G# 8b
8E	8d	8g#	.	8EE	V7/V	8E 8g# 8b 8dd
8F#	8c#	8a	.	8FF#	iii	8F# 8a 8cc#
8G#	8B	8b	8dd	8GG#	viio/V	8G# 8b 8dd
=6	=6	=6	=6	=6	=6	=6
8A	4A	8e	8cc#	8AA	V	8A 8cc# 8ee
8G#	.	8f#	8b	8GG#	v7/vii	8G# 8b 8dd# 8fff#
8F#	4G#	4g#	4cc#	4CC#	Vb/iii	4c# 4E# 4g#
8E#	.	.	.	.	.	.
4F#;	4c#;	4f#;	4a;	4FF#;	iii;	4F#; 4a; 4cc#;
4F#	8f#	[4a	4cc#	4FF#	iii7	4F# 4a 4cc# 4ee
.	8e	.	.	.	.	.
=7	=7	=7	=7	=7	=7	=7
8B	4d	8a]	4dd	4GG#	vii/V	4G# 4b 4dd#
8BB	.	8g#	.	.	.	.
8C#	4e	[4a	4cc#	4AA	Vb	4a 4C# 4ee
8D	.	.	.	.	.	.
8E	8e	4a]	4b	8EE	II	8E 8g# 8b
8D	8f#	.	.	8BB	vi7b	8b 8D 8ff# 8aa
8E	8e	4g#	4b	4EE	II7	4E 4g# 4b 4dd
8EE	8d	.	.	.	.	.
=8	=8	=8	=8	=8	=8	=8
2.AA;	2.c#;	2.e;	2.a;	2.AA;	V;	2.A; 2.cc#; 2.ee;
4C#	4A	4e	4a	4AA	Vb	4a 4C# 4ee
=9	=9	=9	=9	=9	=9	=9
8D	4A	4d	8f#	4DD	I	4D 4f# 4a
8E	.	.	8g	.	.	.
8F#	8d	4d	4a	4DD	I7	4D 4f# 4a 4cc#
8D	8cn	.	.	.	.	.
4G	8B	8d	4b	8GG	IV	8G 8b 8dd
.	8c#	8e	.	8CC#	viio7c	8c# 8e 8G 8b
8F#	8d	4f#	4a	4DD	I7b	4d 4F# 4a 4cc#
8E	8cn	.	.	.	.	.
=10	=10	=10	=10	=10	=10	=10
4D#	2B	4f#	4a	4BB	V7b/ii	4b 4D# 4ff# 4aa
4E	.	4e	8g	4EE	ii	4E 4g 4b
.	.	.	8f#	.	.	.
4BB;	4B;	4d#;	4f#;	4BB;	VI;	4B; 4dd#; 4ff#;
4FF#	4cn	4dn	4a	4DD	V7b/IV	4d 4F# 4a 4cc
=11	=11	=11	=11	=11	=11	=11
8GG	4B	4d	4g	4GG	IV	4G 4b 4dd
8AA	.	.	.	.	.	.
8BB	4B	[4d	4f#	4BB	vi7	4B 4dd 4ff# 4aa
8AA	.	.	.	.	.	.
8GG	4B	4d]	4e	4EE	ii7	4E 4g 4b 4dd
8EE	.	.	.	.	.	.
4AA	8A	4c#	4e	4AA	V	4A 4cc# 4ee
.	8G	.	.	.	.	.
=12	=12	=12	=12	=12	=12	=12
2.DD;	2.F#;	2.A;	2.d;	2.DD;	I;	2.D; 2.f#; 2.a;
==	==	==	==	==	==	==
*-	*-	*-	*-	*-	*-	*-
